sources/design/Outline/ൄ.svg

<svg:svg xmlns:cc="http://creativecommons.org/ns#" xmlns:dc="http://purl.org/dc/elements/1.1/" xmlns:inkscape="http://www.inkscape.org/namespaces/inkscape" xmlns:rdf="http://www.w3.org/1999/02/22-rdf-syntax-ns#" xmlns:sodipodi="http://sodipodi.sourceforge.net/DTD/sodipodi-0.dtd" xmlns:svg="http://www.w3.org/2000/svg" xml:space="preserve" width="1000" height="1000" version="1.1" style="clip-rule:evenodd;fill-rule:evenodd;image-rendering:optimizeQuality;shape-rendering:geometricPrecision;text-rendering:geometricPrecision" viewBox="0 0 1000 1000" id="svg10" sodipodi:docname="ൄ.svg" inkscape:version="1.0.2 (e86c870879, 2021-01-15)"><svg:metadata id="metadata14"><rdf:RDF><cc:Work rdf:about=""><dc:format>image/svg+xml</dc:format><dc:type rdf:resource="http://purl.org/dc/dcmitype/StillImage" /><dc:title /></cc:Work></rdf:RDF></svg:metadata><sodipodi:namedview pagecolor="#ffffff" bordercolor="#666666" borderopacity="1" objecttolerance="10" gridtolerance="10" guidetolerance="10" inkscape:pageopacity="0" inkscape:pageshadow="2" inkscape:window-width="1920" inkscape:window-height="1009" id="namedview12" showgrid="false" inkscape:zoom="0.84890884" inkscape:cx="-174.43453" inkscape:cy="445.57918" inkscape:window-x="1920" inkscape:window-y="0" inkscape:window-maximized="1" inkscape:current-layer="svg10" showguides="true" inkscape:guide-bbox="true" inkscape:document-rotation="0" inkscape:pagecheckerboard="0"><sodipodi:guide position="0,1000" orientation="0,1" id="guide16" inkscape:label="" inkscape:locked="true" inkscape:color="rgb(0,0,255)" /><sodipodi:guide position="1763.3122,2036.1693" orientation="1000,0" id="guide18" /><sodipodi:guide position="0,200" orientation="0,1" id="guide20" inkscape:label="base" inkscape:locked="true" inkscape:color="rgb(0,0,255)" /><inkscape:grid type="xygrid" id="grid24" originx="-473.37552" originy="-489.69235" /><sodipodi:guide position="0,0" orientation="0,1" id="guide34" inkscape:label="bottom" inkscape:locked="true" inkscape:color="rgb(0,0,255)" /><sodipodi:guide position="225.05109,1693.3186" orientation="0,1" id="guide44" inkscape:label="" inkscape:locked="false" inkscape:color="rgb(0,0,255)" /><sodipodi:guide position="0,900" orientation="0,1" id="guide46" inkscape:label="" inkscape:locked="true" inkscape:color="rgb(0,0,255)" /><sodipodi:guide position="195.74243,494.96418" orientation="-1,0" id="guide840" inkscape:label="width" inkscape:locked="false" inkscape:color="rgb(0,0,255)" /></sodipodi:namedview>
 <svg:defs id="defs4"><inkscape:path-effect effect="fillet_chamfer" id="path-effect842" is_visible="true" lpeversion="1" satellites_param="F,0,0,1,0,0,0,1 @ F,0,0,1,0,0,0,1 @ F,0,0,1,0,0,0,1 @ F,0,0,1,0,0,0,1 @ F,0,0,1,0,0,0,1 @ F,0,0,1,0,0,0,1 @ F,0,0,1,0,0,0,1 @ F,0,0,1,0,0,0,1 @ F,0,0,1,0,0,0,1 @ F,0,0,1,0,0,0,1 @ F,0,0,1,0,0,0,1 @ F,0,0,1,0,0,0,1 @ F,0,0,1,0,0,0,1 @ F,0,0,1,0,0,0,1 @ F,0,0,1,0,0,0,1 @ F,0,0,1,0,0,0,1 @ F,0,0,1,0,0,0,1 @ F,0,0,1,0,0,0,1 @ F,0,0,1,0,0,0,1 @ F,0,0,1,0,0,0,1 @ F,0,0,1,0,0,0,1 @ F,0,0,1,0,0,0,1 @ F,0,0,1,0,0,0,1 @ F,0,0,1,0,14.588762,0,1 @ F,0,0,1,0,17.791763,0,1 @ F,0,0,1,0,0,0,1 @ F,0,0,1,0,0,0,1 @ F,0,0,1,0,0,0,1 @ F,0,0,1,0,0,0,1 @ F,0,0,1,0,0,0,1 @ F,0,0,1,0,0,0,1 @ F,0,0,1,0,0,0,1 @ F,0,0,1,0,0,0,1 @ F,0,0,1,0,0,0,1 @ F,0,0,1,0,0,0,1 @ F,0,0,1,0,0,0,1 @ F,0,0,1,0,0,0,1 @ F,0,0,1,0,0,0,1 @ F,0,0,1,0,0,0,1 @ F,0,0,1,0,0,0,1 @ F,0,0,1,0,0,0,1 @ F,0,0,1,0,0,0,1" unit="px" method="auto" mode="F" radius="0" chamfer_steps="1" flexible="false" use_knot_distance="true" apply_no_radius="true" apply_with_radius="true" only_selected="true" hide_knots="false" /><inkscape:path-effect effect="fillet_chamfer" id="path-effect841" is_visible="true" lpeversion="1" satellites_param="F,0,0,1,0,0,0,1 @ F,0,0,1,0,0,0,1 @ F,0,0,1,0,0,0,1 @ F,0,0,1,0,0,0,1 @ F,0,0,1,0,0,0,1 @ F,0,0,1,0,0,0,1 @ F,0,0,1,0,0,0,1 @ F,0,0,1,0,0,0,1 @ F,0,0,1,0,0,0,1 @ F,0,0,1,0,0,0,1 @ F,0,0,1,0,0,0,1 @ F,0,0,1,0,0,0,1 @ F,0,0,1,0,0,0,1 @ F,0,0,1,0,0,0,1 @ F,0,0,1,0,0,0,1 @ F,0,0,1,0,0,0,1 @ F,0,0,1,0,0,0,1 @ F,0,0,1,0,0,0,1 @ F,0,0,1,0,25.281133,0,1 @ F,0,0,1,0,25.281133,0,1 @ F,0,0,1,0,0,0,1 @ F,0,0,1,0,0,0,1 @ F,0,0,1,0,0,0,1 @ F,0,0,1,0,0,0,1 @ F,0,0,1,0,0,0,1 @ F,0,0,1,0,0,0,1 @ F,0,0,1,0,0,0,1 @ F,0,0,1,0,0,0,1 @ F,0,0,1,0,0,0,1 @ F,0,0,1,0,0,0,1 @ F,0,0,1,0,0,0,1 @ F,0,0,1,0,0,0,1 @ F,0,0,1,0,0,0,1 @ F,0,0,1,0,12.111636,0,1 @ F,0,0,1,0,0,0,1 @ F,0,0,1,0,0,0,1" unit="px" method="auto" mode="F" radius="0" chamfer_steps="1" flexible="false" use_knot_distance="true" apply_no_radius="true" apply_with_radius="true" only_selected="true" hide_knots="false" />
  <svg:style type="text/css" id="style2">
   
    .fil0 {fill:#EF7F1A;fill-rule:nonzero}
   
  </svg:style>
 <inkscape:path-effect effect="spiro" id="path-effect1214" is_visible="true" lpeversion="1" /><inkscape:path-effect effect="spiro" id="path-effect1195" is_visible="true" lpeversion="1" /></svg:defs>
 
<svg:g id="path933-9-3-62-3-6"><svg:path style="color:#000000;clip-rule:nonzero;fill:#1a5fb4;fill-rule:nonzero;stroke-linecap:round;stroke-linejoin:round;-inkscape-stroke:none;paint-order:fill stroke markers;shape-rendering:auto" d="M 35.027344,70.560547 C 12.689726,71.257783 -9.130076000000003,90.468913 -10.212890999999999,113.21094 C -11.138198,132.64488 -11.689048999999999,152.09748 -11.865234,171.55273 C -13.02517,299.63865 2.1570600000000013,428.066 34.921875,552.17383 C 52.262693999999996,617.8580499999999 73.22873899999999,679.7729499999999 77.935547,740.96484 C 78.891518,753.39316 79.004793,765.68925 78.431641,777.7792999999999 C 63.825671,772.6940199999999 47.933246999999994,769.69152 31.115234,770.54297 C 9.367535700000001,771.6439899999999 -11.004990999999997,779.06354 -28.318359,790.57227 C -33.431481,793.97111 -38.139642,797.78119 -42.642578,801.77734 C -54.316003,790.3987999999999 -68.078541,780.6045399999999 -84.119141,774.12695 C -108.32393,764.3524699999999 -134.9588,762.94619 -159.91406,769.6230499999999 C -184.82702,776.2885899999999 -206.8569,790.6599699999999 -223.15820000000002,810.2910199999999 C -239.43391000000003,829.8912499999999 -249.31721000000002,853.8745999999999 -251.97070000000002,878.9374999999999 C -254.62036000000003,903.9641499999999 -249.98589,929.1212099999999 -239.08789000000002,951.4999999999999 C -228.18389000000002,973.8911199999999 -211.63055000000003,992.3638599999999 -192.38867000000002,1006.3632999999999 C -173.21495000000002,1020.3130999999998 -151.72003,1029.6428999999998 -129.86719000000002,1035.3476999999998 C -86.27952800000003,1046.7262999999998 -42.61792800000002,1043.7567999999999 -2.494140600000023,1037.8222999999998 C 44.007464,1030.9444 94.372875,1018.6927 136.32812,986.33789 C 184.83467,948.9309 211.68627,891.76019 220.0,834.30469 C 228.52807,775.36792 218.68264,717.43624 204.38672,663.87695 C 190.11604,610.41221 171.45091,560.37737 159.13477,510.76562 C 138.02764,425.74216 134.15025,336.27695 154.60352,252.91602 C 162.7789,219.59576 174.81965,187.19063 190.37695,156.60352 C 195.63654,146.26267 197.0005,132.38773 191.50585999999998,120.41797 C 186.01121999999998,108.44820999999999 174.23387,100.21231 162.70702999999997,97.654297 L 44.574219,71.439453 C 41.420992,70.739694 38.218432,70.460942 35.027344,70.560547 M 49.042969,133.89062 L 126.63086,151.10937 C 113.93455,179.29589 103.70165,208.58295 96.332031,238.61914000000002 C 73.107461,333.27504 77.846419,432.34709 100.90234,525.2207000000001 C 114.31913999999999,579.2661 133.14325,629.6235300000001 146.41602,679.3496100000001 C 159.66354,728.9811400000001 167.38415,778.9470100000001 160.61719,825.7128900000001 C 160.39385,827.2563700000002 160.01627,828.7722200000002 159.75781,830.3105500000001 C 156.14749,827.2434500000002 152.62267,824.0767300000001 148.96484,821.0664100000001 C 144.67784,817.5382800000001 140.19163,813.9634500000001 135.58203,810.4023400000001 C 139.36622,785.46999 139.61529000000002,760.5118500000001 137.75781,736.36328 C 132.27034,665.02221 109.5227,599.69624 92.933594,536.85937 C 61.609376,418.2083 47.017162,295.07576 48.130859,172.0957 C 48.246219,159.35715 48.593132000000004,146.62184 49.042969,133.89061999999998 L 49.042969,133.89062 M -125.21484,825.67969 C -118.75059999999999,826.0519300000001 -112.38091999999999,827.42156 -106.58594,829.7617200000001 C -99.974992,832.4313800000001 -93.497817,836.5745000000001 -87.550781,841.76953 C -88.659565,841.60386 -89.723863,841.2733900000001 -90.84375,841.1543 C -107.16727,839.4184 -124.85274,842.63639 -140.01367,853.89062 C -147.58805999999998,859.51323 -154.03238,866.86324 -158.50195,875.90039 C -163.00119,884.99751 -165.22194,895.23433 -164.35156,905.99023 C -162.86641,924.34334 -153.30418,938.2025 -142.3418,947.81055 C -131.78339,957.06452 -120.63847000000001,961.94028 -111.39258000000001,965.52148 C -83.18851800000002,976.44574 -52.07274700000001,981.4371 -20.837891000000013,977.60352 C 14.79713499999999,973.22988 48.31869499999999,957.52891 74.55468699999999,933.1543 C 77.50236299999999,930.41575 80.27757099999998,927.54758 83.00195299999999,924.6425800000001 A 30.003,30.003 0.0 0,0 103.70507999999998,935.31641 C 102.34500999999999,936.4585000000001 101.09052999999999,937.74224 99.68749999999999,938.82422 C 70.67373199999999,961.1988799999999 30.881417999999982,972.23376 -11.273438000000013,978.46875 C -47.795000000000016,983.87054 -83.33174500000001,985.48456 -114.71094000000001,977.29297 C -130.34152,973.21258 -144.93759,966.68512 -157.08984,957.84375 C -169.17394000000002,949.05197 -179.08547000000002,937.6686 -185.14258,925.23047 C -191.14597,912.90264 -193.71937,898.6159 -192.30469000000002,885.25391 C -190.89384,871.92817 -185.38376000000002,858.71969 -176.99805000000003,848.62109 C -168.63792000000004,838.55331 -156.78480000000005,830.89591 -144.40625000000003,827.58398 C -138.23813000000004,825.93368 -131.67909000000003,825.30744 -125.21484000000002,825.67969 L -125.21484,825.67969 M 34.148437000000015,830.4668 C 44.17932300000002,829.95896 55.60393600000002,832.741 66.91992200000001,837.84961 C 66.15400500000001,839.88267 65.37569100000002,841.9046 64.53125000000001,843.89453 C 50.274110000000015,840.508 35.603527000000014,839.60053 21.449219000000014,840.93359 C 13.823263000000013,841.65181 6.342942100000014,843.11388 -1.0058593999999879,845.00586 C 0.9134171900000121,843.40915 2.8717490000000123,841.8882199999999 4.898437500000012,840.54102 C 13.897584000000013,834.5590100000001 24.341073000000016,830.96332 34.148437000000015,830.4668 M -97.18945299999997,900.81836 C -93.50219699999997,901.21047 -89.41053599999998,903.04387 -86.66406199999997,905.53516 C -84.82360299999998,907.20461 -83.42194099999998,909.5368 -82.33789099999997,911.96484 C -84.79958599999998,911.16203 -87.29809399999996,910.5106099999999 -89.72070299999997,909.57227 C -96.23150499999997,907.05044 -100.64594999999997,904.57294 -102.79491999999998,902.68945 C -103.20257999999998,902.3321599999999 -103.28256999999998,902.1145399999999 -103.53124999999997,901.79687 C -102.39433999999997,901.24404 -100.05321999999997,900.51382 -97.18945299999997,900.81836 M 15.603516000000027,902.7011699999999 C 6.931086000000027,907.9276699999999 -2.432309799999974,912.0441299999999 -12.138671999999971,914.7812499999999 C -3.6603574999999715,909.2013199999999 5.816941000000028,905.0787499999999 15.603516000000027,902.7011699999999" id="path15939" /></svg:g></svg:svg>

<svg:svg xmlns:cc="http://creativecommons.org/ns#" xmlns:dc="http://purl.org/dc/elements/1.1/" xmlns:inkscape="http://www.inkscape.org/namespaces/inkscape" xmlns:rdf="http://www.w3.org/1999/02/22-rdf-syntax-ns#" xmlns:sodipodi="http://sodipodi.sourceforge.net/DTD/sodipodi-0.dtd" xmlns:svg="http://www.w3.org/2000/svg" xml:space="preserve" width="1000" height="1000" version="1.1" style="clip-rule:evenodd;fill-rule:evenodd;image-rendering:optimizeQuality;shape-rendering:geometricPrecision;text-rendering:geometricPrecision" viewBox="0 0 1000 1000" id="svg10" sodipodi:docname="ൄ.svg" inkscape:version="1.0.2 (e86c870879, 2021-01-15)"><svg:metadata id="metadata14"><rdf:RDF><cc:Work rdf:about=""><dc:format>image/svg+xml</dc:format><dc:type rdf:resource="http://purl.org/dc/dcmitype/StillImage" /><dc:title /></cc:Work></rdf:RDF></svg:metadata><sodipodi:namedview pagecolor="#ffffff" bordercolor="#666666" borderopacity="1" objecttolerance="10" gridtolerance="10" guidetolerance="10" inkscape:pageopacity="0" inkscape:pageshadow="2" inkscape:window-width="1920" inkscape:window-height="1009" id="namedview12" showgrid="false" inkscape:zoom="0.84890884" inkscape:cx="-174.43453" inkscape:cy="445.57918" inkscape:window-x="1920" inkscape:window-y="0" inkscape:window-maximized="1" inkscape:current-layer="svg10" showguides="true" inkscape:guide-bbox="true" inkscape:document-rotation="0" inkscape:pagecheckerboard="0"><sodipodi:guide position="0,1000" orientation="0,1" id="guide16" inkscape:label="" inkscape:locked="true" inkscape:color="rgb(0,0,255)" /><sodipodi:guide position="1763.3122,2036.1693" orientation="1000,0" id="guide18" /><sodipodi:guide position="0,200" orientation="0,1" id="guide20" inkscape:label="base" inkscape:locked="true" inkscape:color="rgb(0,0,255)" /><inkscape:grid type="xygrid" id="grid24" originx="-473.37552" originy="-489.69235" /><sodipodi:guide position="0,0" orientation="0,1" id="guide34" inkscape:label="bottom" inkscape:locked="true" inkscape:color="rgb(0,0,255)" /><sodipodi:guide position="225.05109,1693.3186" orientation="0,1" id="guide44" inkscape:label="" inkscape:locked="false" inkscape:color="rgb(0,0,255)" /><sodipodi:guide position="0,900" orientation="0,1" id="guide46" inkscape:label="" inkscape:locked="true" inkscape:color="rgb(0,0,255)" /><sodipodi:guide position="195.74243,494.96418" orientation="-1,0" id="guide840" inkscape:label="width" inkscape:locked="false" inkscape:color="rgb(0,0,255)" /></sodipodi:namedview>
 <svg:defs id="defs4"><inkscape:path-effect effect="fillet_chamfer" id="path-effect842" is_visible="true" lpeversion="1" satellites_param="F,0,0,1,0,0,0,1 @ F,0,0,1,0,0,0,1 @ F,0,0,1,0,0,0,1 @ F,0,0,1,0,0,0,1 @ F,0,0,1,0,0,0,1 @ F,0,0,1,0,0,0,1 @ F,0,0,1,0,0,0,1 @ F,0,0,1,0,0,0,1 @ F,0,0,1,0,0,0,1 @ F,0,0,1,0,0,0,1 @ F,0,0,1,0,0,0,1 @ F,0,0,1,0,0,0,1 @ F,0,0,1,0,0,0,1 @ F,0,0,1,0,0,0,1 @ F,0,0,1,0,0,0,1 @ F,0,0,1,0,0,0,1 @ F,0,0,1,0,0,0,1 @ F,0,0,1,0,0,0,1 @ F,0,0,1,0,0,0,1 @ F,0,0,1,0,0,0,1 @ F,0,0,1,0,0,0,1 @ F,0,0,1,0,0,0,1 @ F,0,0,1,0,0,0,1 @ F,0,0,1,0,14.588762,0,1 @ F,0,0,1,0,17.791763,0,1 @ F,0,0,1,0,0,0,1 @ F,0,0,1,0,0,0,1 @ F,0,0,1,0,0,0,1 @ F,0,0,1,0,0,0,1 @ F,0,0,1,0,0,0,1 @ F,0,0,1,0,0,0,1 @ F,0,0,1,0,0,0,1 @ F,0,0,1,0,0,0,1 @ F,0,0,1,0,0,0,1 @ F,0,0,1,0,0,0,1 @ F,0,0,1,0,0,0,1 @ F,0,0,1,0,0,0,1 @ F,0,0,1,0,0,0,1 @ F,0,0,1,0,0,0,1 @ F,0,0,1,0,0,0,1 @ F,0,0,1,0,0,0,1 @ F,0,0,1,0,0,0,1" unit="px" method="auto" mode="F" radius="0" chamfer_steps="1" flexible="false" use_knot_distance="true" apply_no_radius="true" apply_with_radius="true" only_selected="true" hide_knots="false" /><inkscape:path-effect effect="fillet_chamfer" id="path-effect841" is_visible="true" lpeversion="1" satellites_param="F,0,0,1,0,0,0,1 @ F,0,0,1,0,0,0,1 @ F,0,0,1,0,0,0,1 @ F,0,0,1,0,0,0,1 @ F,0,0,1,0,0,0,1 @ F,0,0,1,0,0,0,1 @ F,0,0,1,0,0,0,1 @ F,0,0,1,0,0,0,1 @ F,0,0,1,0,0,0,1 @ F,0,0,1,0,0,0,1 @ F,0,0,1,0,0,0,1 @ F,0,0,1,0,0,0,1 @ F,0,0,1,0,0,0,1 @ F,0,0,1,0,0,0,1 @ F,0,0,1,0,0,0,1 @ F,0,0,1,0,0,0,1 @ F,0,0,1,0,0,0,1 @ F,0,0,1,0,0,0,1 @ F,0,0,1,0,25.281133,0,1 @ F,0,0,1,0,25.281133,0,1 @ F,0,0,1,0,0,0,1 @ F,0,0,1,0,0,0,1 @ F,0,0,1,0,0,0,1 @ F,0,0,1,0,0,0,1 @ F,0,0,1,0,0,0,1 @ F,0,0,1,0,0,0,1 @ F,0,0,1,0,0,0,1 @ F,0,0,1,0,0,0,1 @ F,0,0,1,0,0,0,1 @ F,0,0,1,0,0,0,1 @ F,0,0,1,0,0,0,1 @ F,0,0,1,0,0,0,1 @ F,0,0,1,0,0,0,1 @ F,0,0,1,0,12.111636,0,1 @ F,0,0,1,0,0,0,1 @ F,0,0,1,0,0,0,1" unit="px" method="auto" mode="F" radius="0" chamfer_steps="1" flexible="false" use_knot_distance="true" apply_no_radius="true" apply_with_radius="true" only_selected="true" hide_knots="false" />
  <svg:style type="text/css" id="style2">
   
    .fil0 {fill:#EF7F1A;fill-rule:nonzero}
   
  </svg:style>
 <inkscape:path-effect effect="spiro" id="path-effect1214" is_visible="true" lpeversion="1" /><inkscape:path-effect effect="spiro" id="path-effect1195" is_visible="true" lpeversion="1" /></svg:defs>
 
<svg:g id="path933-9-3-62-3-6"><svg:path style="color:#000000;clip-rule:nonzero;fill:#1a5fb4;fill-rule:nonzero;stroke-linecap:round;stroke-linejoin:round;-inkscape-stroke:none;shape-rendering:auto" d="m 35.027344,70.560547 c -22.337618,0.697236 -44.15742,19.908366 -45.240235,42.650393 -0.925307,19.43394 -1.476158,38.88654 -1.652343,58.34179 -1.159936,128.08592 14.022294,256.51327 46.787109,380.6211 17.340819,65.68422 38.306864,127.59912 43.013672,188.79101 0.955971,12.42832 1.069246,24.72441 0.496094,36.81446 -14.60597,-5.08528 -30.498394,-8.08778 -47.316407,-7.23633 -21.7476983,1.10102 -42.120225,8.52057 -59.433593,20.0293 -5.113122,3.39884 -9.821283,7.20892 -14.324219,11.20507 -11.673425,-11.37854 -25.435963,-21.1728 -41.476563,-27.65039 -24.204789,-9.77448 -50.839659,-11.18076 -75.794919,-4.5039 -24.91296,6.66554 -46.94284,21.03692 -63.24414,40.66797 -16.27571,19.60023 -26.15901,43.58358 -28.8125,68.64648 -2.64966,25.02665 1.98481,50.18371 12.88281,72.5625 10.904,22.39112 27.45734,40.86386 46.69922,54.8633 19.17372,13.9498 40.66864,23.2796 62.52148,28.9844 43.587662,11.3786 87.249262,8.4091 127.3730494,2.4746 C 44.007464,1030.9444 94.372875,1018.6927 136.32812,986.33789 184.83467,948.9309 211.68627,891.76019 220,834.30469 228.52807,775.36792 218.68264,717.43624 204.38672,663.87695 190.11604,610.41221 171.45091,560.37737 159.13477,510.76562 c -21.10713,-85.02346 -24.98452,-174.48867 -4.53125,-257.8496 8.17538,-33.32026 20.21613,-65.72539 35.77343,-96.3125 5.25959,-10.34085 6.62355,-24.21579 1.12891,-36.18555 -5.49464,-11.96976 -17.27199,-20.20566 -28.79883,-22.763673 L 44.574219,71.439453 c -3.153227,-0.699759 -6.355787,-0.978511 -9.546875,-0.878906 z m 14.015625,63.330073 77.587891,17.21875 c -12.69631,28.18652 -22.92921,57.47358 -30.298829,87.50977 -23.22457,94.6559 -18.485612,193.72795 4.570309,286.60156 13.4168,54.0454 32.24091,104.40283 45.51368,154.12891 13.24752,49.63153 20.96813,99.5974 14.20117,146.36328 -0.22334,1.54348 -0.60092,3.05933 -0.85938,4.59766 -3.61032,-3.0671 -7.13514,-6.23382 -10.79297,-9.24414 -4.287,-3.52813 -8.77321,-7.10296 -13.38281,-10.66407 3.78419,-24.93235 4.03326,-49.89049 2.17578,-74.03906 C 132.27034,665.02221 109.5227,599.69624 92.933594,536.85937 61.609376,418.2083 47.017162,295.07576 48.130859,172.0957 c 0.11536,-12.73855 0.462273,-25.47386 0.91211,-38.20508 z M -125.21484,825.67969 c 6.46424,0.37224 12.83392,1.74187 18.6289,4.08203 6.610948,2.66966 13.088123,6.81278 19.035159,12.00781 -1.108784,-0.16567 -2.173082,-0.49614 -3.292969,-0.61523 -16.32352,-1.7359 -34.00899,1.48209 -49.16992,12.73632 -7.57439,5.62261 -14.01871,12.97262 -18.48828,22.00977 -4.49924,9.09712 -6.71999,19.33394 -5.84961,30.08984 1.48515,18.35311 11.04738,32.21227 22.00976,41.82032 10.55841,9.25397 21.70333,14.12973 30.94922,17.71093 28.204062,10.92426 59.319833,15.91562 90.554689,12.08204 35.635026,-4.37364 69.156586,-20.07461 95.392578,-44.44922 2.947676,-2.73855 5.722884,-5.60672 8.447266,-8.51172 a 30.003,30.003 0 0 0 20.703127,10.67383 c -1.36007,1.14209 -2.61455,2.42583 -4.01758,3.50781 -29.013768,22.37466 -68.806082,33.40954 -110.960938,39.64453 -36.521562,5.40179 -72.058307,7.01581 -103.437502,-1.17578 -15.63058,-4.08039 -30.22665,-10.60785 -42.3789,-19.44922 -12.0841,-8.79178 -21.99563,-20.17515 -28.05274,-32.61328 -6.00339,-12.32783 -8.57679,-26.61457 -7.16211,-39.97656 1.41085,-13.32574 6.92093,-26.53422 15.30664,-36.63282 8.36013,-10.06778 20.21325,-17.72518 32.5918,-21.03711 6.16812,-1.6503 12.72716,-2.27654 19.19141,-1.90429 z m 159.363277,4.78711 c 10.030886,-0.50784 21.455499,2.2742 32.771485,7.38281 -0.765917,2.03306 -1.544231,4.05499 -2.388672,6.04492 -14.25714,-3.38653 -28.927723,-4.294 -43.082031,-2.96094 -7.625956,0.71822 -15.1062769,2.18029 -22.4550784,4.07227 1.91927659,-1.59671 3.8776084,-3.11764 5.9042969,-4.46484 8.9991465,-5.98201 19.4426355,-9.5777 29.2499995,-10.07422 z m -131.33789,70.35156 c 3.687256,0.39211 7.778917,2.22551 10.525391,4.7168 1.840459,1.66945 3.242121,4.00164 4.326171,6.42968 -2.461695,-0.80281 -4.960203,-1.45423 -7.382812,-2.39257 -6.510802,-2.52183 -10.925247,-4.99933 -13.074217,-6.88282 -0.40766,-0.35729 -0.48765,-0.57491 -0.73633,-0.89258 1.13691,-0.55283 3.47803,-1.28305 6.341797,-0.97851 z m 112.792969,1.88281 c -8.67243,5.2265 -18.0358258,9.34296 -27.742188,12.08008 8.4783145,-5.57993 17.955613,-9.7025 27.742188,-12.08008 z" id="path15903" /></svg:g></svg:svg>
